48x48/apps/bendy-and-the-ink-machine.svg

<svg xmlns="http://www.w3.org/2000/svg" width="48" height="48"><path style="opacity:.2" d="M32 7c.697.723.998 1.18 1 2 0 2.761-4.029 5-9 5s-9-2.239-9-5c.002-.809.322-1.284 1-2C9 9 4.01 17.043 4 25c0 11.046 8.954 20 20 20s20-8.954 20-20c-.003-7.976-5-16-12-18z"/><path style="fill:#4f4f4f" d="M32 6c.697.723.998 1.18 1 2 0 2.761-4.029 5-9 5s-9-2.239-9-5c.002-.809.322-1.284 1-2C9 8 4.01 16.043 4 24c0 11.046 8.954 20 20 20s20-8.954 20-20c-.003-7.976-5-16-12-18z"/><path style="opacity:.2" d="M15 16c-6 0-9 9-9 9 0 9.941 8.059 18 18 18s18-8.059 18-18a18.386 18.386 0 0 0-.029-.846S38 16 33 16c-4 1-9 5-9 5s-4-4-9-5zm0 7a4 5 0 0 1 4 5 4 5 0 0 1-1.705 4.092A4 .5 0 0 0 15 32a4 .5 0 0 0-2.287.09A4 5 0 0 1 11.086 29H15l-3.855-2.313A4 5 0 0 1 15 23zm18 0a4 5 0 0 1 4 5 4 5 0 0 1-1.705 4.092A4 .5 0 0 0 33 32a4 .5 0 0 0-2.287.09A4 5 0 0 1 29.086 29H33l-3.855-2.313A4 5 0 0 1 33 23zM18.514 33.504c.157.006.323.048.486.076v5.813a5.147 5.147 0 0 1-1-.504v-5.348c.167-.027.337-.044.514-.037zM30 33.541c.359.058.696.195 1 .459v4c-.275.365-.623.645-1 .889zm-1 .039v5.813c-.32.119-.653.22-1 .296v-5.857a6.719 6.719 0 0 1 1-.252zm-9 .252c.328.11.663.227 1 .357v5.674c-.34-.042-.673-.101-1-.174zM17 34v4c-.803-1.064-1.007-3.126 0-4zm10 .189v5.674c-.332.041-.666.068-1 .088v-5.385c.335-.118.666-.247 1-.377zm-5 .377c.336.12.67.224 1 .301v5.112c-.335-.007-.658-.007-1-.028zm3 .301v5.112c-.335.006-.683.021-1 .021v-5c.325 0 .66-.054 1-.133z"/><path style="fill:#ffce66" d="M15 15c-6 0-9 9-9 9 0 9.941 8.059 18 18 18s18-8.059 18-18a18.386 18.386 0 0 0-.029-.846S38 15 33 15c-4 1-9 5-9 5s-4-4-9-5zm0 7a4 5 0 0 1 4 5 4 5 0 0 1-1.705 4.092A4 .5 0 0 0 15 31a4 .5 0 0 0-2.287.09A4 5 0 0 1 11.086 28H15l-3.855-2.313A4 5 0 0 1 15 22zm18 0a4 5 0 0 1 4 5 4 5 0 0 1-1.705 4.092A4 .5 0 0 0 33 31a4 .5 0 0 0-2.287.09A4 5 0 0 1 29.086 28H33l-3.855-2.313A4 5 0 0 1 33 22zM18.514 32.504c.157.006.323.048.486.076v5.813a5.147 5.147 0 0 1-1-.504v-5.348c.167-.027.337-.044.514-.037zM30 32.541c.359.058.696.195 1 .459v4c-.275.365-.623.645-1 .889zm-1 .039v5.813c-.32.119-.653.22-1 .296v-5.857a6.719 6.719 0 0 1 1-.252zm-9 .252c.328.11.663.227 1 .357v5.674c-.34-.042-.673-.101-1-.174zM17 33v4c-.803-1.064-1.007-3.126 0-4zm10 .189v5.674c-.332.041-.666.068-1 .088v-5.385c.335-.118.666-.247 1-.377zm-5 .377c.336.12.67.224 1 .301v5.112c-.335-.007-.658-.007-1-.028zm3 .301v5.112c-.335.006-.683.021-1 .021v-5c.325 0 .66-.054 1-.133z"/><path style="opacity:.1;fill:#f4f4f7" d="M16 6C9 8 4.01 16.043 4 24c0 .206.01.409.016.613.16-7.489 4.681-14.952 11.101-17.31.144-.441.425-.82.883-1.303zm16 0c.473.491.75.864.889 1.307 6.417 2.359 10.942 9.804 11.095 17.306.007-.204.016-.407.016-.613-.003-7.976-5-16-12-18zm.949 2.523C32.478 11.04 28.652 13 24 13c-4.646 0-8.468-1.956-8.947-4.467A2.335 2.335 0 0 0 15 9c0 2.761 4.029 5 9 5s9-2.239 9-5c0-.176-.022-.328-.051-.477z"/><path style="opacity:.2;fill:#f4f4f7" d="M14.914 15c-6 0-9 9-9 9 0 .742.06 1.468.147 2.186C6.035 25.792 6 25.4 6 25c0 0 3-9 9-9 5 1 9 5 9 5s5-4 9-5c4.895 0 8.75 7.718 8.912 8.047l.002-.047a18.386 18.386 0 0 0-.029-.846S37.914 15 32.914 15c-4 1-9 5-9 5s-4-4-9-5zm-3.529 10.883a4 5 0 0 0-.24.804L13.332 28h1.582zm18 0a4 5 0 0 0-.24.804L31.332 28h1.582zM18.914 27a4 5 0 0 1-1.705 4.092A4 .5 0 0 0 14.914 31a4 .5 0 0 0-2.287.09A4 5 0 0 1 11.26 29h-.174a4 5 0 0 0 1.627 3.09A4 .5 0 0 1 15 32a4 .5 0 0 1 2.295.092A4 5 0 0 0 19 28a4 5 0 0 0-.086-1zm18 0a4 5 0 0 1-1.705 4.092A4 .5 0 0 0 32.914 31a4 .5 0 0 0-2.287.09A4 5 0 0 1 29.26 29h-.174a4 5 0 0 0 1.627 3.09A4 .5 0 0 1 33 32a4 .5 0 0 1 2.295.092A4 5 0 0 0 37 28a4 5 0 0 0-.086-1zm-18 6.566v4.827a5.16 5.16 0 0 1-.914-.455v.951c.309.2.641.37 1 .504V33.58c-.029-.005-.057-.008-.086-.014zM29 33.58c-.028.005-.058.016-.086.022v4.791a7.617 7.617 0 0 1-.914.271v1.025c.347-.076.68-.177 1-.296zm1.914.365V37c-.253.336-.572.594-.914.824v1.065c.377-.244.725-.524 1-.889v-4c-.027-.024-.058-.033-.086-.055zM17 34c-.034.029-.055.07-.086.102V37c-.273-.362-.47-.844-.58-1.352-.036.841.214 1.753.666 2.352zm3.914.158v4.705a10.436 10.436 0 0 1-.914-.158v.984c.327.073.66.132 1 .174v-5.674l-.086-.031zm6.086.031a3.066 3.066 0 0 1-.086.034v4.64c-.303.038-.609.061-.914.08v1.008c.334-.02.668-.047 1-.088zm-4.086.653v4.137c-.306-.006-.604-.01-.914-.026v.998c.342.021.665.021 1 .028v-5.112c-.028-.006-.058-.018-.086-.025zm2.086.025c-.029.007-.057.009-.086.016v4.096c-.307.005-.62.017-.914.019V40c.317 0 .665-.015 1-.021z"/></svg>

<svg xmlns="http://www.w3.org/2000/svg" width="48" height="48" version="1.1">
 <path style="opacity:0.2" d="M 32,7 C 32.697,7.7235 32.998,8.1795 33,9 33,11.761 28.971,14 24,14 19.029,14 15,11.761 15,9 15.002,8.1914 15.322,7.7156 16,7 9,9 4.0101,17.043 4,25 4,36.046 12.954,45 24,45 35.046,45 44,36.046 44,25 43.997,17.024 39,9 32,7 Z"/>
 <path style="fill:#4f4f4f" d="M 32,6 C 32.697,6.7235 32.998,7.1795 33,8 33,10.761 28.971,13 24,13 19.029,13 15,10.761 15,8 15.002,7.1914 15.322,6.7156 16,6 9,8 4.0101,16.043 4,24 4,35.046 12.954,44 24,44 35.046,44 44,35.046 44,24 43.997,16.024 39,8 32,6 Z"/>
 <path style="opacity:0.2" d="M 15,16 C 9,16 6,25 6,25 6,34.941 14.059,43 24,43 33.941,43 42,34.941 42,25 41.997,24.718 41.987,24.436 41.971,24.154 41.971,24.154 38,16 33,16 29,17 24,21 24,21 24,21 20,17 15,16 Z M 15,23 A 4,5 0 0 1 19,28 4,5 0 0 1 17.295,32.092 4,0.5 0 0 0 15,32 4,0.5 0 0 0 12.713,32.09 4,5 0 0 1 11.086,29 H 15 L 11.145,26.687 A 4,5 0 0 1 15,23 Z M 33,23 A 4,5 0 0 1 37,28 4,5 0 0 1 35.295,32.092 4,0.5 0 0 0 33,32 4,0.5 0 0 0 30.713,32.09 4,5 0 0 1 29.086,29 H 33 L 29.145,26.687 A 4,5 0 0 1 33,23 Z M 18.514,33.504 C 18.671,33.51 18.837,33.552 19,33.58 V 39.393 C 18.641,39.259 18.309,39.089 18,38.889 V 33.541 C 18.167,33.514 18.337,33.497 18.514,33.504 Z M 30,33.541 C 30.359,33.599 30.696,33.736 31,34 V 38 C 30.725,38.365 30.377,38.645 30,38.889 Z M 29,33.58 V 39.393 C 28.68,39.512 28.347,39.613 28,39.689 V 33.832 C 28.343,33.717 28.675,33.636 29,33.58 Z M 20,33.832 C 20.328,33.942 20.663,34.059 21,34.189 V 39.863 C 20.66,39.821 20.327,39.762 20,39.689 Z M 17,34 V 38 C 16.197,36.936 15.993,34.874 17,34 Z M 27,34.189 V 39.863 C 26.668,39.904 26.334,39.931 26,39.951 V 34.566 C 26.335,34.448 26.666,34.319 27,34.189 Z M 22,34.566 C 22.336,34.686 22.67,34.79 23,34.867 V 39.979 C 22.665,39.972 22.342,39.972 22,39.951 Z M 25,34.867 V 39.979 C 24.665,39.985 24.317,40 24,40 V 35 C 24.325,35 24.66,34.946 25,34.867 Z"/>
 <path style="fill:#ffce66" d="M 15,15 C 9,15 6,24 6,24 6,33.941 14.059,42 24,42 33.941,42 42,33.941 42,24 41.997,23.718 41.987,23.436 41.971,23.154 41.971,23.154 38,15 33,15 29,16 24,20 24,20 24,20 20,16 15,15 Z M 15,22 A 4,5 0 0 1 19,27 4,5 0 0 1 17.295,31.092 4,0.5 0 0 0 15,31 4,0.5 0 0 0 12.713,31.09 4,5 0 0 1 11.086,28 H 15 L 11.145,25.687 A 4,5 0 0 1 15,22 Z M 33,22 A 4,5 0 0 1 37,27 4,5 0 0 1 35.295,31.092 4,0.5 0 0 0 33,31 4,0.5 0 0 0 30.713,31.09 4,5 0 0 1 29.086,28 H 33 L 29.145,25.687 A 4,5 0 0 1 33,22 Z M 18.514,32.504 C 18.671,32.51 18.837,32.552 19,32.58 V 38.393 C 18.641,38.259 18.309,38.089 18,37.889 V 32.541 C 18.167,32.514 18.337,32.497 18.514,32.504 Z M 30,32.541 C 30.359,32.599 30.696,32.736 31,33 V 37 C 30.725,37.365 30.377,37.645 30,37.889 Z M 29,32.58 V 38.393 C 28.68,38.512 28.347,38.613 28,38.689 V 32.832 C 28.343,32.717 28.675,32.636 29,32.58 Z M 20,32.832 C 20.328,32.942 20.663,33.059 21,33.189 V 38.863 C 20.66,38.821 20.327,38.762 20,38.689 Z M 17,33 V 37 C 16.197,35.936 15.993,33.874 17,33 Z M 27,33.189 V 38.863 C 26.668,38.904 26.334,38.931 26,38.951 V 33.566 C 26.335,33.448 26.666,33.319 27,33.189 Z M 22,33.566 C 22.336,33.686 22.67,33.79 23,33.867 V 38.979 C 22.665,38.972 22.342,38.972 22,38.951 Z M 25,33.867 V 38.979 C 24.665,38.985 24.317,39 24,39 V 34 C 24.325,34 24.66,33.946 25,33.867 Z"/>
 <path style="opacity:0.1;fill:#f4f4f7" d="M 16,6 C 9,8 4.0101,16.043 4,24 4,24.206 4.0095,24.409 4.0156,24.613 4.1762,17.124 8.6971,9.6608 15.117,7.3027 15.261,6.862 15.542,6.4831 16,6 Z M 32,6 C 32.473,6.491 32.75,6.8645 32.889,7.3066 39.306,9.666 43.831,17.111 43.984,24.613 43.991,24.409 44,24.206 44,24 43.997,16.024 39,8 32,6 Z M 32.949,8.5234 C 32.478,11.039 28.652,13 24,13 19.354,13 15.532,11.044 15.053,8.5332 15.024,8.6796 15,8.8293 15,9 15,11.761 19.029,14 24,14 28.971,14 33,11.761 33,9 33,8.8244 32.978,8.6719 32.949,8.5234 Z"/>
 <path style="opacity:0.2;fill:#f4f4f7" d="M 14.914,15 C 8.9141,15 5.9141,24 5.9141,24 5.9141,24.742 5.9734,25.468 6.0605,26.186 6.0348,25.792 6,25.4 6,25 6,25 9,16 15,16 20,17 24,21 24,21 24,21 29,17 33,16 37.895,16 41.75,23.718 41.912,24.047 41.912,24.031 41.914,24.016 41.914,24 41.911,23.718 41.901,23.436 41.885,23.154 41.885,23.154 37.914,15 32.914,15 28.914,16 23.914,20 23.914,20 23.914,20 19.914,16 14.914,15 Z M 11.385,25.883 A 4,5 0 0 0 11.145,26.687 L 13.332,28 H 14.914 Z M 29.385,25.883 A 4,5 0 0 0 29.145,26.687 L 31.332,28 H 32.914 Z M 18.914,27 A 4,5 0 0 1 17.209,31.092 4,0.5 0 0 0 14.914,31 4,0.5 0 0 0 12.627,31.09 4,5 0 0 1 11.26,29 H 11.086 A 4,5 0 0 0 12.713,32.09 4,0.5 0 0 1 15,32 4,0.5 0 0 1 17.295,32.092 4,5 0 0 0 19,28 4,5 0 0 0 18.914,27 Z M 36.914,27 A 4,5 0 0 1 35.209,31.092 4,0.5 0 0 0 32.914,31 4,0.5 0 0 0 30.627,31.09 4,5 0 0 1 29.26,29 H 29.086 A 4,5 0 0 0 30.713,32.09 4,0.5 0 0 1 33,32 4,0.5 0 0 1 35.295,32.092 4,5 0 0 0 37,28 4,5 0 0 0 36.914,27 Z M 18.914,33.566 V 38.393 C 18.587,38.271 18.286,38.115 18,37.938 V 38.889 C 18.309,39.089 18.641,39.259 19,39.393 V 33.58 C 18.971,33.575 18.943,33.572 18.914,33.566 Z M 29,33.58 C 28.972,33.585 28.942,33.596 28.914,33.602 V 38.393 C 28.621,38.502 28.315,38.59 28,38.664 V 39.689 C 28.347,39.613 28.68,39.512 29,39.393 Z M 30.914,33.945 V 37 C 30.661,37.336 30.342,37.594 30,37.824 V 38.889 C 30.377,38.645 30.725,38.365 31,38 V 34 C 30.973,33.976 30.942,33.967 30.914,33.945 Z M 17,34 C 16.966,34.029 16.945,34.07 16.914,34.102 V 37 C 16.641,36.638 16.444,36.156 16.334,35.648 16.298,36.489 16.548,37.401 17,38 Z M 20.914,34.158 V 38.863 C 20.603,38.825 20.3,38.769 20,38.705 V 39.689 C 20.327,39.762 20.66,39.821 21,39.863 V 34.189 C 20.971,34.178 20.943,34.169 20.914,34.158 Z M 27,34.189 C 26.971,34.201 26.943,34.212 26.914,34.223 V 38.863 C 26.611,38.901 26.305,38.924 26,38.943 V 39.951 C 26.334,39.931 26.668,39.904 27,39.863 Z M 22.914,34.842 V 38.979 C 22.608,38.973 22.31,38.969 22,38.953 V 39.951 C 22.342,39.972 22.665,39.972 23,39.979 V 34.867 C 22.972,34.861 22.942,34.849 22.914,34.842 Z M 25,34.867 C 24.971,34.874 24.943,34.876 24.914,34.883 V 38.979 C 24.607,38.984 24.294,38.996 24,38.998 V 40 C 24.317,40 24.665,39.985 25,39.979 Z"/>
</svg>
